X: 30
T:Willafjord
M:C|
L:1/8
R:reel
A:Shetland
K:D
B2|A2FA2DFA|B2GB2DGB|A2FA2DFA|EFGA GFED|A2FA2DFA|B2GB2DGB|ABcd efge|f2 d
2 d2 :|
z2|f2 df2 fdf|geaf gfeg|f2 df2 Adf|e2ce2Ace|f2df2fdf|geaf gfec|ABcd efge
|f2 d2 d2 :|
